X: 1
T: Tierpspolskan
R: hambo-polska
O: efter Leif Alpsj\"o
Z: John Chambers <jc@trillian.mit.edu>
M: 3/4
L: 1/8
K: G
|: "G"G2 (BD) G>B | "Am"c2 (ec) A>G | "D"F2 (AD) F>A | d2 (d>c) B>A \
| "G"G2 (BD) G>B | "Am"BA/B/ c>B A>G | "D"F2 AD F>A | (3A/F/A/ "G"G4 :|
|: "G"G(B/d/) g2 g2 | "D7"(g>f) (fd) d>f | "C"f>e ce g>e | "G"ed d4 \
| "Am"c>B c>d e>c | "G"c>B Bd d2 | "D7"D2 F>A c>F | (3A/F/A/ "G"G4 :|

%%sep 1 1 500

